X:2493
T:Shandon bells
T:(Double jig)
C:anon., arr. Frank Nordberg
O:Ireland
R:Double jig
Z:(C) 2001 Arranged by Frank Nordberg - http://www.musicaviva.com
F:http://abc.musicaviva.com/tunes/ireland/sh/shandon-bells/shandon-bells-hrp2.abc
M:6/8
L:1/8
K:D
V:1
B|:A(FD) (DF)A|de(d c)BA|BGE (EF)A|B2A (Bc)d|
A(FD) (DF)A|de(d c)BA|B(cd) ecA|[1 d3 (dc)B:|[2 d3 d2g|
|:f2 d- ded|(fa)a (af)d|cAA eAA|(cB)c e(fg)|
f2 d- ded|(fa)a (af)d|(Bc)d ecA|[1 d3 d2g:|[2 d3 d2|]
V:2 clef=bass
z|:d6|d'6|g6|g6|
d6|d'6|g3a3|[1 d2a d'3:|[2 d3 d3|
|:d'3 d3|d'3 d3|a3a3|a3a3|
d3 d'3|d3 d'3|g3 a3|[1 d2a d3:|[2 d2a d2|]
W:
W:
W:  From Musica Viva - http://www.musicaviva.com
W:  the Internet center for free sheet music downloads.
